assets/images/hits.svg

<svg width="256" height="38" viewBox="0 0 256 38" fill="none" xmlns="http://www.w3.org/2000/svg">
<rect x="13" width="231" height="38" fill="#543018"/>
<path d="M0 0H13V38H0L8 18.5L0 0Z" fill="#543018"/>
<path d="M256 38L243 38L243 1.1365e-06L256 0L248 19.5L256 38Z" fill="#543018"/>
<path d="M26.034 21.488C26.202 21.754 26.258 21.95 26.258 22.09C26.258 22.734 25.236 22.65 25.236 22.916V23H30.402V22.916C30.402 22.608 29.52 22.916 28.68 21.6L26.062 17.512L27.266 15.79C28.806 13.606 30.08 14.026 30.066 13.662V13.578H26.524V13.676C26.524 14.012 27.56 13.774 27.56 14.46C27.56 14.712 27.406 15.062 27.042 15.608L25.922 17.302L24.662 15.342C24.41 14.95 24.242 14.628 24.242 14.432C24.242 13.788 25.278 13.97 25.278 13.662V13.578H20.35V13.662C20.35 13.914 21.134 13.732 22.058 15.202L24.298 18.758L22.66 21.04C21.26 23 20.098 22.566 20.098 22.916V23H23.696V22.916C23.696 22.58 22.52 22.832 22.52 22.076C22.52 21.782 22.828 21.278 23.248 20.69L24.438 18.968L26.034 21.488ZM40.9297 21.572C40.9297 22.986 39.6977 22.58 39.6977 22.916V23H44.5557V22.916C44.5557 22.524 43.2117 23.07 43.2117 21.404V14.866C43.2117 13.606 44.5557 13.998 44.5557 13.662V13.578H39.6977V13.662C39.6977 13.998 40.9297 13.634 40.9297 14.88V15.132L37.2477 20.858V14.866C37.2477 13.634 38.5217 13.998 38.5217 13.662V13.578H33.6777V13.662C33.6777 13.998 34.9657 13.634 34.9657 14.88V21.404C34.9657 23.042 33.6777 22.552 33.6777 22.916V23H38.5217V22.916C38.5217 22.58 37.2477 23 37.2477 21.572V21.32C38.0877 20.27 40.0897 16.644 40.9297 15.594V21.572ZM52.4781 13.564C50.4761 13.564 49.3281 13.508 48.2081 13.256L47.8301 16.7C47.8581 16.714 47.8721 16.714 47.9001 16.714C48.0121 16.714 48.0821 16.63 48.1381 16.462C48.8101 14.53 49.4821 13.816 50.9941 13.816H51.3441V21.558C51.3441 23 50.0001 22.58 50.0001 22.916V23H54.9841V22.916C54.9841 22.566 53.6121 23 53.6121 21.572C53.6121 18.982 53.5981 16.406 53.5981 13.816H53.9621C55.4741 13.816 56.1461 14.53 56.8181 16.462C56.8741 16.63 56.9441 16.714 57.0561 16.714C57.0841 16.714 57.0981 16.714 57.1261 16.7L56.7481 13.256C55.6281 13.508 54.4801 13.564 52.4781 13.564ZM72.2536 14.88C72.2536 13.634 73.5836 14.012 73.5836 13.676V13.578H68.6696V13.676C68.6696 14.012 69.9716 13.62 69.9716 14.88V21.418C69.9716 23.042 68.6696 22.552 68.6696 22.916V23H73.5836V22.916C73.5836 22.566 72.2536 23.042 72.2536 21.418V14.88ZM63.4756 17.526V15.09C63.4756 13.62 64.8196 14.026 64.8196 13.676V13.578H59.8776V13.676C59.8776 14.012 61.1796 13.62 61.1796 15.104V21.348C61.1796 23.056 59.8776 22.566 59.8776 22.916V23H65.3936C68.1096 23 68.9776 21.39 68.9776 20.214C68.9776 17.974 66.8636 17.386 65.1696 17.386C64.6236 17.386 64.0636 17.442 63.4756 17.526ZM63.4756 17.764C63.6716 17.736 63.8676 17.722 64.0636 17.722C65.4776 17.722 66.5556 18.52 66.5556 20.27C66.5556 21.754 65.6736 22.776 64.4976 22.776C63.5316 22.776 63.4756 22.132 63.4756 21.334V17.764ZM93.2352 14.88C93.2352 13.634 94.5792 13.998 94.5792 13.676V13.578H83.6172V13.676C83.6172 13.998 84.9472 13.62 84.9472 14.894V21.558C84.9472 23 83.6172 22.58 83.6172 22.916V23H88.4892V22.916C88.4892 22.566 87.2152 23 87.2152 21.572V13.816H90.9672V21.432C90.9672 23 89.7212 22.594 89.7212 22.916V23H94.6072V22.916C94.6072 22.524 93.2352 23.084 93.2352 21.152V14.88ZM98.7517 21.558C98.7517 22.986 97.4077 22.594 97.4077 22.916V23H102.364V22.916C102.364 22.566 101.034 23 101.034 21.572C101.034 20.76 101.02 19.948 101.02 19.136C101.426 19.206 101.916 19.234 102.336 19.234C104.324 19.234 106.228 18.38 106.228 16.336C106.228 14.418 104.464 13.564 102.182 13.564H97.4217V13.662C97.4217 14.026 98.7517 13.578 98.7517 14.922V21.558ZM101.02 13.816H101.608C102.854 13.816 103.792 14.754 103.792 16.364C103.792 17.946 102.91 18.94 101.384 18.94C101.258 18.94 101.132 18.926 101.02 18.898V13.816ZM108.878 18.282C108.878 20.914 110.544 23.168 113.89 23.168C117.152 23.168 118.986 20.83 118.986 18.254C118.986 15.706 117.278 13.396 113.904 13.396C110.768 13.396 108.878 15.608 108.878 18.282ZM111.454 18.282C111.454 16 112.056 13.634 113.904 13.634C115.864 13.634 116.41 15.804 116.41 18.338C116.41 20.802 115.836 22.944 113.96 22.944C112.014 22.944 111.454 20.76 111.454 18.282ZM132.337 22.636C131.847 22.72 131.217 22.748 130.699 22.748V14.88C130.699 13.606 131.973 14.012 131.973 13.662V13.564H123.503V13.676C123.503 14.026 125.127 13.634 125.127 14.908C125.015 17.778 124.595 21.278 123.237 22.748C122.929 22.748 122.299 22.72 121.837 22.65C121.823 22.65 121.823 22.664 121.809 22.664L122.019 25.898H122.103C122.215 25.898 122.257 25.87 122.313 25.618C122.425 25.002 122.579 24.4 122.747 23.84C122.957 23.14 123.209 23 124.483 23H129.551C130.685 23 131.147 23.042 131.413 23.854C131.595 24.414 131.749 25.002 131.861 25.618C131.903 25.856 131.973 25.898 132.057 25.898H132.155C132.239 24.82 132.309 23.714 132.379 22.65C132.365 22.65 132.351 22.636 132.337 22.636ZM123.559 22.748C124.945 21.292 125.393 17.848 125.435 13.844H128.431V22.762C126.807 22.762 125.183 22.748 123.559 22.748ZM141.949 21.39C142.089 21.782 142.159 21.992 142.159 22.132C142.159 22.846 141.193 22.65 141.193 22.916V23H145.673V22.916C145.673 22.636 144.847 22.93 144.357 21.642L141.319 13.564H138.281V13.676C138.281 13.998 139.597 13.732 139.597 14.698C139.597 14.852 139.555 15.034 139.471 15.258C138.715 17.288 137.931 19.29 137.175 21.32C136.531 23.028 135.257 22.566 135.257 22.916V23H138.701V22.916C138.701 22.608 137.357 22.888 137.357 21.894C137.357 21.726 137.455 21.39 137.511 21.25L137.945 20.046H141.445L141.949 21.39ZM139.737 15.398L141.361 19.808H138.029L139.653 15.398H139.737ZM156.562 14.88C156.562 13.62 157.892 14.012 157.892 13.676V13.578H152.978V13.676C152.978 14.012 154.28 13.634 154.28 14.88V17.848H154.056C152.572 17.848 152.124 16.714 151.55 15.09L151.494 14.936C151.242 14.138 150.864 13.368 149.87 13.368C149.142 13.368 148.68 13.83 148.68 14.376C148.68 14.922 149.17 15.356 149.744 15.356C150.262 15.356 150.822 15.062 150.99 14.418C151.41 15.328 151.774 17.274 152.964 17.848V17.918C151.256 17.918 150.528 18.52 149.926 20.158C149.226 22.048 148.946 22.762 148.232 22.762C148.148 22.762 148.078 22.762 147.98 22.734C147.966 22.804 147.952 22.902 147.952 22.972C148.274 23.112 148.75 23.21 149.268 23.21C151.298 23.21 151.592 21.852 152.166 20.158C152.53 19.094 152.824 18.114 153.888 18.114H154.28V21.586C154.28 23 153.006 22.58 153.006 22.916V23H157.892V22.916C157.892 22.58 156.562 23 156.562 21.586V18.114H156.954C158.354 18.114 158.452 19.864 159.152 21.572C159.544 22.552 160.076 23.224 161.518 23.224C162.022 23.224 162.54 23.112 162.904 22.972C162.89 22.902 162.862 22.804 162.862 22.72C162.736 22.748 162.652 22.776 162.568 22.776C161.91 22.776 161.602 21.978 160.93 20.102C160.356 18.492 159.6 17.918 157.878 17.918V17.848C159.068 17.274 159.432 15.328 159.866 14.418C160.02 15.09 160.692 15.356 161.084 15.356C161.644 15.356 162.148 14.992 162.148 14.376C162.148 13.998 161.882 13.634 161.434 13.522C161.308 13.424 161.154 13.368 160.972 13.368C160.02 13.368 159.656 14.054 159.39 14.824C158.816 16.462 158.354 17.848 156.87 17.848H156.562V14.88ZM176.835 13.564C174.833 13.564 173.685 13.508 172.565 13.256L172.187 16.7C172.215 16.714 172.229 16.714 172.257 16.714C172.369 16.714 172.439 16.63 172.495 16.462C173.167 14.53 173.839 13.816 175.351 13.816H175.701V21.558C175.701 23 174.357 22.58 174.357 22.916V23H179.341V22.916C179.341 22.566 177.969 23 177.969 21.572C177.969 18.982 177.955 16.406 177.955 13.816H178.319C179.831 13.816 180.503 14.53 181.175 16.462C181.231 16.63 181.301 16.714 181.413 16.714C181.441 16.714 181.455 16.714 181.483 16.7L181.105 13.256C179.985 13.508 178.837 13.564 176.835 13.564ZM184.416 18.282C184.416 20.914 186.082 23.168 189.428 23.168C192.69 23.168 194.524 20.83 194.524 18.254C194.524 15.706 192.816 13.396 189.442 13.396C186.306 13.396 184.416 15.608 184.416 18.282ZM186.992 18.282C186.992 16 187.594 13.634 189.442 13.634C191.402 13.634 191.948 15.804 191.948 18.338C191.948 20.802 191.374 22.944 189.498 22.944C187.552 22.944 186.992 20.76 186.992 18.282ZM207.315 14.88C207.315 13.634 208.659 13.998 208.659 13.676V13.578H197.697V13.676C197.697 13.998 199.027 13.62 199.027 14.894V21.558C199.027 23 197.697 22.58 197.697 22.916V23H202.569V22.916C202.569 22.566 201.295 23 201.295 21.572V13.816H205.047V21.432C205.047 23 203.801 22.594 203.801 22.916V23H208.687V22.916C208.687 22.524 207.315 23.084 207.315 21.152V14.88ZM215.142 19.864V19.234H211.53V19.864H215.142ZM223.432 13.55L220.03 14.39C220.03 14.586 220.156 14.614 220.296 14.614H220.506C220.996 14.614 221.5 14.614 221.5 15.552V21.81C221.5 22.93 220.338 22.58 220.338 22.902V23H224.636V22.902C224.636 22.58 223.488 22.958 223.488 21.894V13.606C223.474 13.592 223.446 13.578 223.432 13.55ZM229.786 18.352C229.786 20.774 230.78 23.182 233.412 23.182C236.044 23.182 237.052 20.62 237.052 18.338C237.052 16 236.156 13.592 233.426 13.592C230.878 13.592 229.786 15.986 229.786 18.352ZM231.97 18.366C231.97 15.972 232.306 13.802 233.426 13.802C234.588 13.802 234.882 15.636 234.882 18.38C234.882 21.012 234.574 22.986 233.44 22.986C232.306 22.986 231.97 20.998 231.97 18.366Z" fill="white"/>
</svg>

<svg width="256" height="38" fill="none" xmlns="http://www.w3.org/2000/svg"><path fill="#543018" d="M13 0h231v38H13zM0 0h13v38H0l8-19.5L0 0z"/><path d="M256 38h-13V0h13l-8 19.5 8 18.5z" fill="#543018"/><path d="M26.034 21.488c.168.266.224.462.224.602 0 .644-1.022.56-1.022.826V23h5.166v-.084c0-.308-.882 0-1.722-1.316l-2.618-4.088 1.204-1.722c1.54-2.184 2.814-1.764 2.8-2.128v-.084h-3.542v.098c0 .336 1.036.098 1.036.784 0 .252-.154.602-.518 1.148l-1.12 1.694-1.26-1.96c-.252-.392-.42-.714-.42-.91 0-.644 1.036-.462 1.036-.77v-.084H20.35v.084c0 .252.784.07 1.708 1.54l2.24 3.556-1.638 2.282c-1.4 1.96-2.562 1.526-2.562 1.876V23h3.598v-.084c0-.336-1.176-.084-1.176-.84 0-.294.308-.798.728-1.386l1.19-1.722 1.596 2.52zm14.896.084c0 1.414-1.232 1.008-1.232 1.344V23h4.858v-.084c0-.392-1.344.154-1.344-1.512v-6.538c0-1.26 1.344-.868 1.344-1.204v-.084h-4.858v.084c0 .336 1.232-.028 1.232 1.218v.252l-3.682 5.726v-5.992c0-1.232 1.274-.868 1.274-1.204v-.084h-4.844v.084c0 .336 1.288-.028 1.288 1.218v6.524c0 1.638-1.288 1.148-1.288 1.512V23h4.844v-.084c0-.336-1.274.084-1.274-1.344v-.252c.84-1.05 2.842-4.676 3.682-5.726v5.978zm11.548-8.008c-2.002 0-3.15-.056-4.27-.308L47.83 16.7a.126.126 0 00.07.014c.112 0 .182-.084.238-.252.672-1.932 1.344-2.646 2.856-2.646h.35v7.742C51.344 23 50 22.58 50 22.916V23h4.984v-.084c0-.35-1.372.084-1.372-1.344 0-2.59-.014-5.166-.014-7.756h.364c1.512 0 2.184.714 2.856 2.646.056.168.126.252.238.252.028 0 .042 0 .07-.014l-.378-3.444c-1.12.252-2.268.308-4.27.308zm19.776 1.316c0-1.246 1.33-.868 1.33-1.204v-.098H68.67v.098c0 .336 1.302-.056 1.302 1.204v6.538c0 1.624-1.302 1.134-1.302 1.498V23h4.914v-.084c0-.35-1.33.126-1.33-1.498V14.88zm-8.778 2.646V15.09c0-1.47 1.344-1.064 1.344-1.414v-.098h-4.942v.098c0 .336 1.302-.056 1.302 1.428v6.244c0 1.708-1.302 1.218-1.302 1.568V23h5.516c2.716 0 3.584-1.61 3.584-2.786 0-2.24-2.114-2.828-3.808-2.828-.546 0-1.106.056-1.694.14zm0 .238c.196-.028.392-.042.588-.042 1.414 0 2.492.798 2.492 2.548 0 1.484-.882 2.506-2.058 2.506-.966 0-1.022-.644-1.022-1.442v-3.57zm29.76-2.884c0-1.246 1.343-.882 1.343-1.204v-.098H83.617v.098c0 .322 1.33-.056 1.33 1.218v6.664c0 1.442-1.33 1.022-1.33 1.358V23h4.872v-.084c0-.35-1.274.084-1.274-1.344v-7.756h3.752v7.616c0 1.568-1.246 1.162-1.246 1.484V23h4.886v-.084c0-.392-1.372.168-1.372-1.764V14.88zm5.516 6.678c0 1.428-1.344 1.036-1.344 1.358V23h4.956v-.084c0-.35-1.33.084-1.33-1.344 0-.812-.014-1.624-.014-2.436.406.07.896.098 1.316.098 1.988 0 3.892-.854 3.892-2.898 0-1.918-1.764-2.772-4.046-2.772h-4.76v.098c0 .364 1.33-.084 1.33 1.26v6.636zm2.268-7.742h.588c1.246 0 2.184.938 2.184 2.548 0 1.582-.882 2.576-2.408 2.576-.126 0-.252-.014-.364-.042v-5.082zm7.858 4.466c0 2.632 1.666 4.886 5.012 4.886 3.262 0 5.096-2.338 5.096-4.914 0-2.548-1.708-4.858-5.082-4.858-3.136 0-5.026 2.212-5.026 4.886zm2.576 0c0-2.282.602-4.648 2.45-4.648 1.96 0 2.506 2.17 2.506 4.704 0 2.464-.574 4.606-2.45 4.606-1.946 0-2.506-2.184-2.506-4.662zm20.883 4.354c-.49.084-1.12.112-1.638.112V14.88c0-1.274 1.274-.868 1.274-1.218v-.098h-8.47v.112c0 .35 1.624-.042 1.624 1.232-.112 2.87-.532 6.37-1.89 7.84-.308 0-.938-.028-1.4-.098-.014 0-.014.014-.028.014l.21 3.234h.084c.112 0 .154-.028.21-.28.112-.616.266-1.218.434-1.778.21-.7.462-.84 1.736-.84h5.068c1.134 0 1.596.042 1.862.854.182.56.336 1.148.448 1.764.042.238.112.28.196.28h.098c.084-1.078.154-2.184.224-3.248-.014 0-.028-.014-.042-.014zm-8.778.112c1.386-1.456 1.834-4.9 1.876-8.904h2.996v8.918c-1.624 0-3.248-.014-4.872-.014zm18.39-1.358c.14.392.21.602.21.742 0 .714-.966.518-.966.784V23h4.48v-.084c0-.28-.826.014-1.316-1.274l-3.038-8.078h-3.038v.112c0 .322 1.316.056 1.316 1.022 0 .154-.042.336-.126.56-.756 2.03-1.54 4.032-2.296 6.062-.644 1.708-1.918 1.246-1.918 1.596V23h3.444v-.084c0-.308-1.344-.028-1.344-1.022 0-.168.098-.504.154-.644l.434-1.204h3.5l.504 1.344zm-2.212-5.992l1.624 4.41h-3.332l1.624-4.41h.084zm16.825-.518c0-1.26 1.33-.868 1.33-1.204v-.098h-4.914v.098c0 .336 1.302-.042 1.302 1.204v2.968h-.224c-1.484 0-1.932-1.134-2.506-2.758l-.056-.154c-.252-.798-.63-1.568-1.624-1.568-.728 0-1.19.462-1.19 1.008s.49.98 1.064.98c.518 0 1.078-.294 1.246-.938.42.91.784 2.856 1.974 3.43v.07c-1.708 0-2.436.602-3.038 2.24-.7 1.89-.98 2.604-1.694 2.604-.084 0-.154 0-.252-.028a1.38 1.38 0 00-.028.238c.322.14.798.238 1.316.238 2.03 0 2.324-1.358 2.898-3.052.364-1.064.658-2.044 1.722-2.044h.392v3.472c0 1.414-1.274.994-1.274 1.33V23h4.886v-.084c0-.336-1.33.084-1.33-1.33v-3.472h.392c1.4 0 1.498 1.75 2.198 3.458.392.98.924 1.652 2.366 1.652a4.08 4.08 0 001.386-.252c-.014-.07-.042-.168-.042-.252-.126.028-.21.056-.294.056-.658 0-.966-.798-1.638-2.674-.574-1.61-1.33-2.184-3.052-2.184v-.07c1.19-.574 1.554-2.52 1.988-3.43.154.672.826.938 1.218.938.56 0 1.064-.364 1.064-.98 0-.378-.266-.742-.714-.854a.734.734 0 00-.462-.154c-.952 0-1.316.686-1.582 1.456-.574 1.638-1.036 3.024-2.52 3.024h-.308V14.88zm20.273-1.316c-2.002 0-3.15-.056-4.27-.308l-.378 3.444c.028.014.042.014.07.014.112 0 .182-.084.238-.252.672-1.932 1.344-2.646 2.856-2.646h.35v7.742c0 1.442-1.344 1.022-1.344 1.358V23h4.984v-.084c0-.35-1.372.084-1.372-1.344 0-2.59-.014-5.166-.014-7.756h.364c1.512 0 2.184.714 2.856 2.646.056.168.126.252.238.252.028 0 .042 0 .07-.014l-.378-3.444c-1.12.252-2.268.308-4.27.308zm7.581 4.718c0 2.632 1.666 4.886 5.012 4.886 3.262 0 5.096-2.338 5.096-4.914 0-2.548-1.708-4.858-5.082-4.858-3.136 0-5.026 2.212-5.026 4.886zm2.576 0c0-2.282.602-4.648 2.45-4.648 1.96 0 2.506 2.17 2.506 4.704 0 2.464-.574 4.606-2.45 4.606-1.946 0-2.506-2.184-2.506-4.662zm20.323-3.402c0-1.246 1.344-.882 1.344-1.204v-.098h-10.962v.098c0 .322 1.33-.056 1.33 1.218v6.664c0 1.442-1.33 1.022-1.33 1.358V23h4.872v-.084c0-.35-1.274.084-1.274-1.344v-7.756h3.752v7.616c0 1.568-1.246 1.162-1.246 1.484V23h4.886v-.084c0-.392-1.372.168-1.372-1.764V14.88zm7.827 4.984v-.63h-3.612v.63h3.612zm8.29-6.314l-3.402.84c0 .196.126.224.266.224h.21c.49 0 .994 0 .994.938v6.258c0 1.12-1.162.77-1.162 1.092V23h4.298v-.098c0-.322-1.148.056-1.148-1.008v-8.288c-.014-.014-.042-.028-.056-.056zm6.354 4.802c0 2.422.994 4.83 3.626 4.83 2.632 0 3.64-2.562 3.64-4.844 0-2.338-.896-4.746-3.626-4.746-2.548 0-3.64 2.394-3.64 4.76zm2.184.014c0-2.394.336-4.564 1.456-4.564 1.162 0 1.456 1.834 1.456 4.578 0 2.632-.308 4.606-1.442 4.606s-1.47-1.988-1.47-4.62z" fill="#fff"/></svg>
